src/assets/solflare.svg

<svg width="40" height="40" viewBox="0 0 40 40" fill="none" xmlns="http://www.w3.org/2000/svg">
    <path d="M24.8919 24.9666L29.9929 31.0468L23.6926 26.2361C22.228 25.1225 20.1169 26.069 19.9621 27.912L18.9563 40L17.3425 28.1849C17.0883 26.3085 14.85 25.4955 13.4628 26.7706L0 39.1648L11.8104 25.3842C13.0539 23.9365 12.142 21.6759 10.2463 21.5145L0.0773726 20.5234L10.5116 18.8753C12.3299 18.6247 13.1589 16.4477 11.9762 15.0334L6.8751 8.95323L13.1699 13.7639C14.6345 14.8775 16.7456 13.931 16.9004 12.088L17.9117 0L19.52 11.8151C19.7797 13.6915 22.018 14.5045 23.3997 13.2294L36.868 0.835189L25.0521 14.6158C23.8086 16.0635 24.7261 18.3241 26.6217 18.4855L36.7907 19.4766L26.3509 21.1247C24.5326 21.3753 23.7092 23.5523 24.8919 24.9666Z"
          fill="url(#paint0_linear)"/>
    <defs>
        <linearGradient id="paint0_linear" x1="11.8347" y1="14.2185" x2="21.4291" y2="22.4997"
                        gradientUnits="userSpaceOnUse">
            <stop stop-color="#FFC10B"></stop>
            <stop offset="1" stop-color="#FB3F2E"></stop>
        </linearGradient>
    </defs>
</svg>

<svg xmlns="http://www.w3.org/2000/svg" width="40" height="40" fill="none" xmlns:v="https://vecta.io/nano"><path d="M24.892 24.967l5.101 6.08-6.3-4.811c-1.465-1.114-3.576-.167-3.73 1.676L18.956 40l-1.614-11.815c-.254-1.876-2.493-2.689-3.88-1.414L0 39.165l11.81-13.781c1.244-1.448.332-3.708-1.564-3.87L.077 20.523l10.434-1.648c1.818-.251 2.647-2.428 1.465-3.842l-5.101-6.08 6.295 4.811c1.465 1.114 3.576.167 3.731-1.676L17.912 0l1.608 11.815c.26 1.876 2.498 2.689 3.88 1.414L36.868.835 25.052 14.616c-1.244 1.448-.326 3.708 1.57 3.87l10.169.991-10.44 1.648c-1.818.251-2.642 2.428-1.459 3.842z" fill="url(#A)"/><defs><linearGradient id="A" x1="11.835" y1="14.219" x2="21.429" y2="22.5" gradientUnits="userSpaceOnUse"><stop stop-color="#ffc10b"/><stop offset="1" stop-color="#fb3f2e"/></linearGradient></defs></svg>
